X: 24431
T: Loz's Garden
R: reel
M: 4/4
K: Dmajor
D2 DE EF Dd|BA FD EF E2|
D2 DE EF Dd|BA FD E4|
D2 DE EF Dd|BA FD EF E2|
D2 DE EF DA|G2 F2 E4||
d2 cd A2 DD|F2 EF D2 DD|
D2 DE EF Dd|BA FD E2 DD|
d2 cd A2 DD|F2 EF D2 DD|
D2 DE EF Dd|BA FD EF E2||

